img/place_service3.svg

<svg width="24" height="24" viewBox="0 0 24 24" fill="none" xmlns="http://www.w3.org/2000/svg">
<path d="M17.1488 7.12327L14.945 3.85697C14.7816 3.61539 14.5645 3.41723 14.3116 3.2789C14.0588 3.14058 13.7774 3.06607 13.4909 3.06156L9.30863 3H9.3C7.14079 3 5.48411 3.37056 4.41713 5.17904C3.42375 6.86244 3 9.73001 3 14.7673V15.3829H4.37089L3.4884 20H4.71127L5.59376 15.3829H6C6.97994 15.3919 7.924 15.005 8.6283 14.3059C9.26501 13.6808 9.72428 12.8256 9.95651 11.8329L9.95861 11.8239L10.9877 6.76429H9.76185L8.78764 11.5541C8.49094 12.8115 7.60372 14.1517 6 14.1517H4.20225C4.23484 9.79365 4.62158 7.20988 5.44369 5.81647C6.13369 4.64681 7.14225 4.23161 9.29584 4.23104L13.4736 4.2926C13.5691 4.29409 13.6629 4.31892 13.7472 4.36503C13.8315 4.41114 13.9039 4.4772 13.9583 4.55774L16.4513 8.25215L19.8 8.82483V9.47734L19.2416 12.5331C19.0767 13.435 18.795 13.8894 17.6396 14.0318L12.9032 14.8632L12.8718 20H14.0718L14.0968 15.9026L17.7981 15.2523C18.6366 15.1466 19.2552 14.8693 19.6891 14.405C20.0599 14.008 20.2857 13.5008 20.421 12.7601L21 9.59177V7.78182L17.1488 7.12327Z" fill="#FC6733"/>
</svg>

<svg width="24" height="24" viewBox="0 0 24 24" fill="none" xmlns="http://www.w3.org/2000/svg"><path d="M17.149 7.123l-2.204-3.266a1.82 1.82 0 0 0-.633-.578 1.767 1.767 0 0 0-.821-.217L9.309 3H9.3c-2.16 0-3.816.37-4.883 2.179C3.424 6.862 3 9.73 3 14.767v.616h1.37L3.489 20h1.223l.883-4.617H6a3.682 3.682 0 0 0 2.628-1.077c.637-.625 1.096-1.48 1.329-2.473l.002-.01 1.029-5.059H9.762l-.974 4.79C8.49 12.812 7.604 14.152 6 14.152H4.202c.033-4.358.42-6.942 1.242-8.336.69-1.17 1.698-1.584 3.852-1.585l4.178.062a.59.59 0 0 1 .484.265l2.493 3.694 3.349.573v.652l-.558 3.056c-.165.902-.447 1.356-1.602 1.499l-4.737.831L12.872 20h1.2l.025-4.097 3.701-.65c.839-.106 1.457-.384 1.891-.848.37-.397.597-.904.732-1.645L21 9.592v-1.81l-3.851-.659z" fill="#FC6733"/></svg>
